resources/svg/major-receipt.svg

<svg xmlns="http://www.w3.org/2000/svg" viewBox="0 0 20 20" fill="currentColor"><path fill-rule="evenodd" d="M15.5 0h-11c-.828 0-1.5.677-1.5 1.513v18.207a.2.2 0 0 0 .334.15l1.664-1.515a.497.497 0 0 1 .67 0l1.664 1.514c.19.173.48.173.67 0l1.663-1.514a.497.497 0 0 1 .67 0l1.663 1.514c.19.173.48.173.67 0l1.664-1.514a.497.497 0 0 1 .67 0l1.664 1.515a.2.2 0 0 0 .334-.15v-18.207c0-.836-.672-1.513-1.5-1.513zm-.5 5v-1h-10v2h10v-1zm0 3v2h-10v-2h10zm-4 5v-1h-6v2h6v-1z"/></svg>

<svg xmlns="http://www.w3.org/2000/svg" viewBox="0 0 20 20" fill="currentColor"><path fill-rule="evenodd" d="M15.5 0h-11C3.672 0 3 .677 3 1.513V19.72a.2.2 0 00.334.15l1.664-1.515a.497.497 0 01.67 0l1.664 1.514c.19.173.48.173.67 0l1.663-1.514a.497.497 0 01.67 0l1.663 1.514c.19.173.48.173.67 0l1.664-1.514a.497.497 0 01.67 0l1.664 1.515a.2.2 0 00.334-.15V1.513C17 .677 16.328 0 15.5 0zM15 5V4H5v2h10V5zm0 3v2H5V8h10zm-4 5v-1H5v2h6v-1z" fill="#5C5F62"/></svg>
